symbolic/16x16/apps/com.belmoussaoui.Obfuscate.svg

<svg xmlns="http://www.w3.org/2000/svg" width="16" height="16" version="1.1">
 <path style="fill:#4f4f4f" d="M 1.1479442,2.0000034 A 1.1450708,1.0881816 0 0 0 3.62e-6,3.0909122 V 12.909091 C 3.62e-6,13.513727 0.51169814,14 1.1479442,14 H 8.2514007 V 2.0000034 Z m 0,0"/>
 <path style="fill:#ff3737" d="M 4.0000001,5.5002271 C 4.0000001,6.3284873 3.3284869,7 2.4997729,7 1.6713616,7 1,6.3284873 1,5.5002271 1,4.6715127 1.6715129,3.9999999 2.4997729,3.9999999 a 1.4999243,1.4999243 0 0 1 1.5002272,1.5002272 z m 0,0"/>
 <path style="fill:#ffc025" d="M 5.846282,5.5002271 C 5.846282,6.3284873 5.174315,7 4.3460552,7 3.5177951,7 2.8458276,6.3284873 2.8458276,5.5002271 c 0,-0.8287144 0.6718162,-1.5002272 1.5002276,-1.5002272 0.8284115,0 1.5002268,0.6715128 1.5002268,1.5002272 z m 0,0"/>
 <path style="fill:#ff872b" d="M 3.4214749,4.3187945 A 1.5023474,1.5023474 0 0 0 2.8458276,5.5002271 1.5014388,1.5014388 0 0 0 3.4243528,6.6810541 1.5003787,1.5003787 0 0 0 3.9998484,5.5002271 1.4999243,1.4999243 0 0 0 3.4213236,4.3189458 Z m 0,0"/>
 <path style="fill:#9a9996" d="M 1,11.8 H 6 V 13 H 1 Z m 0,0"/>
 <path style="fill:#deddda" d="m 1,10 h 3 v 1 H 1 Z m 0,0"/>
 <path style="fill:#17191e" d="M 8.0002887,2.0000018 V 13.999998 H 13 V 12 h 3 V 4 H 13 V 2.0000018 Z"/>
 <g transform="matrix(0.83333333,0,0,0.83333333,1.6666667,1.3333334)">
  <path style="opacity:0.15" d="M 8.7999999,8 H 11.2 v 2.4 H 8.7999999 Z m 0,0"/>
  <path style="opacity:0.2;fill:#f4f4f7" d="m 11.2,8 h 2.4 v 2.4 h -2.4 z m 0,0"/>
  <path style="opacity:0.2;fill:#f4f4f7" d="M 8.7999999,10.4 H 11.2 v 2.4 H 8.7999999 Z m 0,0"/>
  <path style="opacity:0.15" d="m 11.2,10.4 h 2.4 v 2.4 h -2.4 z m 0,0"/>
 </g>
 <path style="fill:none;stroke:#b2bfd9;stroke-width:2;stroke-linecap:round" d="m 7.9999999,1.05 v 13.9"/>
</svg>

<svg xmlns="http://www.w3.org/2000/svg" width="16" height="16"><path style="fill:#4f4f4f" d="M1.148 2A1.145 1.088 0 0 0 0 3.09v9.82C0 13.513.512 14 1.148 14H8.25V2zm0 0"/><path style="fill:#ff3737" d="M4 5.5A1.5 1.5 0 1 1 2.5 4 1.5 1.5 0 0 1 4 5.5zm0 0"/><path style="fill:#ffc025" d="M5.846 5.5a1.5 1.5 0 1 1-3 0 1.5 1.5 0 0 1 3 0zm0 0"/><path style="fill:#ff872b" d="M3.421 4.319A1.502 1.502 0 0 0 2.846 5.5a1.501 1.501 0 0 0 .578 1.181A1.5 1.5 0 0 0 4 5.501a1.5 1.5 0 0 0-.579-1.182zm0 0"/><path style="fill:#9a9996" d="M1 11.8h5V13H1zm0 0"/><path style="fill:#deddda" d="M1 10h3v1H1zm0 0"/><path style="fill:#17191e" d="M8 2v12h5v-2h3V4h-3V2z"/><path style="opacity:.15" d="M8.8 8h2.4v2.4H8.8zm0 0" transform="matrix(.83333 0 0 .83333 1.667 1.333)"/><path style="opacity:.2;fill:#f4f4f7" d="M11.2 8h2.4v2.4h-2.4zM8.8 10.4h2.4v2.4H8.8zm0 0" transform="matrix(.83333 0 0 .83333 1.667 1.333)"/><path style="opacity:.15" d="M11.2 10.4h2.4v2.4h-2.4zm0 0" transform="matrix(.83333 0 0 .83333 1.667 1.333)"/><path style="fill:none;stroke:#b2bfd9;stroke-width:2;stroke-linecap:round" d="M8 1.05v13.9"/></svg>
